X: 34741
T: Road To Lisdoonvarna, The
R: reel
M: 4/4
K: Dmixolydian
|:DzAG ABcA|GEEE cEGE|DzAG ABcA|1 B/^c/dAG FFEF:|2 B/^c/dAG FDFA||
dzfd ^cAAA|BGGG B/^c/dec|dfed ^cAAA|BzAG FDFA|
d3e ^cAAA|BGGG ^cdec|dzed ^cAAA|B/^c/dAG FGEF||

